assets/icons/tech-ruby.svg

<?xml version="1.0" encoding="UTF-8"?>
<svg viewBox="0 0 50 50" xmlns="http://www.w3.org/2000/svg">
    <path d="m3.125 23.16 5.0586-8.6797c0.046875-0.085938 0.10938-0.16406 0.17969-0.22656l9.0781-8.4609c0.097657-0.089844 0.21484-0.16016 0.33984-0.20703l7.7969-2.8633 6.5742 4.5938-3.2734 10.406-12.281 11.41-10.016 2.2461zm4.1719 10.109 4.6719 13.359 3.8438-15.273zm35.188-30.395-7.4102 4.1172 12.281 8.918c0.25781-1.1484 0.55859-2.7148 0.62891-4.0469-0.003906-0.015625-0.003906-0.035156-0.003906-0.054687 0.039062-1.8984-0.27344-3.8828-1.3047-5.5977-0.92578-1.543-2.3164-2.6719-4.1406-3.3828-0.015625 0.015625-0.027343 0.035156-0.050781 0.046875zm-8.1094 32.703-5.0781-15.52-10.309 9.5859zm-3.2305-16.309 5.043 15.41c3.9453-4.293 7.9844-9.4336 10.289-15.754zm14.238-2.3203-11.531-8.3711-2.7344 8.6914zm-39.621 17.988-3.4258 5.8789c1.1719 5.4258 5.2305 6.6406 7.9062 6.9375zm-0.88281-2.4531-2.8789-6.8398v11.777zm35.043-30.473c-0.015625-0.003906-0.03125-0.011719-0.050781-0.011719h-11.832l5.2734 3.6875zm-22.047 29.344-4.0977 16.277c8.332-1.2266 14.582-5.7031 19.648-10.277zm26.672 14.293c-0.23438 0-0.47266-0.082032-0.66406-0.25l-8.2656-7.3398c-3.6328 3.3711-7.875 6.7969-13.098 9.1055l22.043-1.4961c0.12891-0.007813 0.25-0.046875 0.36328-0.097656-0.12109 0.050781-0.25 0.078125-0.37891 0.078125zm-7.4844-8.9805 8.1484 7.2344c0.17188 0.15234 0.26172 0.35156 0.30078 0.55859l1.6836-22.047c-2.6133 5.6641-6.4531 10.316-10.133 14.254z"
          fill="currentColor"/>
</svg>

<svg xmlns="http://www.w3.org/2000/svg"  viewBox="0 0 50 50" width="50px" height="50px">
    <path fill="#98938F" d="M 3.125 23.160156 L 8.183594 14.480469 C 8.230469 14.394531 8.292969 14.316406 8.363281 14.253906 L 17.441406 5.792969 C 17.539063 5.703125 17.65625 5.632813 17.78125 5.585938 L 25.578125 2.722656 L 32.152344 7.316406 L 28.878906 17.722656 L 16.597656 29.132813 L 6.582031 31.378906 Z M 7.296875 33.269531 L 11.96875 46.628906 L 15.8125 31.355469 Z M 42.484375 2.875 L 35.074219 6.992188 L 47.355469 15.910156 C 47.613281 14.761719 47.914063 13.195313 47.984375 11.863281 C 47.980469 11.847656 47.980469 11.828125 47.980469 11.808594 C 48.019531 9.910156 47.707031 7.925781 46.675781 6.210938 C 45.75 4.667969 44.359375 3.539063 42.535156 2.828125 C 42.519531 2.84375 42.507813 2.863281 42.484375 2.875 Z M 34.375 35.578125 L 29.296875 20.058594 L 18.988281 29.644531 Z M 31.144531 19.269531 L 36.1875 34.679688 C 40.132813 30.386719 44.171875 25.246094 46.476563 18.925781 Z M 45.382813 16.949219 L 33.851563 8.578125 L 31.117188 17.269531 Z M 5.761719 34.9375 L 2.335938 40.816406 C 3.507813 46.242188 7.566406 47.457031 10.242188 47.753906 Z M 4.878906 32.484375 L 2 25.644531 L 2 37.421875 Z M 39.921875 2.011719 C 39.90625 2.007813 39.890625 2 39.871094 2 L 28.039063 2 L 33.3125 5.6875 Z M 17.875 31.355469 L 13.777344 47.632813 C 22.109375 46.40625 28.359375 41.929688 33.425781 37.355469 Z M 44.546875 45.648438 C 44.3125 45.648438 44.074219 45.566406 43.882813 45.398438 L 35.617188 38.058594 C 31.984375 41.429688 27.742188 44.855469 22.519531 47.164063 L 44.5625 45.667969 C 44.691406 45.660156 44.8125 45.621094 44.925781 45.570313 C 44.804688 45.621094 44.675781 45.648438 44.546875 45.648438 Z M 37.0625 36.667969 L 45.210938 43.902344 C 45.382813 44.054688 45.472656 44.253906 45.511719 44.460938 L 47.195313 22.414063 C 44.582031 28.078125 40.742188 32.730469 37.0625 36.667969 Z"/></svg>
